X: 389
P: Longways for as many as will
M: 6/4
L: 1/4
K: D
d2e f2g | a3 b3 | a>gf e2f | g3 f3 | e>dc d2e | A3- A2 :|
|: f |\
e>dc d2e | e3- e2f | e>dc d2e | a3- a2f |\
edc B2A | d2e f2b | abf e2d | d3 d2 :|

